src/22/actions/format-align-vertical-center.svg

<svg xmlns="http://www.w3.org/2000/svg" viewBox="0 0 22 22"><path d="M10 2v4H8l3 3 3-3h-2V2h-2zm1 7H3v1h16V9h-8zm-8 3v1h16v-1H3zm8 1l-3 3h2v4h2v-4h2l-3-3z" fill="currentColor" color="#5d656b"/></svg>

<svg xmlns="http://www.w3.org/2000/svg" viewBox="0 0 22 22">
  <defs id="defs3051">
    <style type="text/css" id="current-color-scheme">
      .ColorScheme-Text {
        color:#5d656b;
      }
      </style>
  </defs>
 <path 
    style="fill:currentColor;fill-opacity:1;stroke:none" 
    d="M 10 2 L 10 6 L 8 6 L 11 9 L 14 6 L 12 6 L 12 2 L 10 2 z M 11 9 L 6 9 L 3 9 L 3 10 L 19 10 L 19 9 L 16 9 L 11 9 z M 3 12 L 3 13 L 4 13 L 7 13 L 11 13 L 18 13 L 19 13 L 19 12 L 18 12 L 4 12 L 3 12 z M 11 13 L 8 16 L 10 16 L 10 20 L 12 20 L 12 16 L 14 16 L 11 13 z "
    class="ColorScheme-Text"
    />  
</svg>
